X: 41886
T: Voldemort's
R: reel
M: 4/4
K: Aminor
ABcd e~A3|fedf eAcA|B~E3 BEdE|edcB cdBc|
ABcd e~A3|fedf eAcA|B~E3 edcB|^GABc ~A4:|
e~A3 fedc|B~g3 aged|c~a3 agfe|~d3c Bg^fg|
e~A3 fedc|B~E3 d2cB|A~E3 DEGA|BeBc ~A4|
e~A3 fedc|B~g3 ^gaed|edce dBcB|AGEG F3D|
E~A3 e~A3|fedf eAcA|B~E3 edcB|^GABc ~A4||

